FINK
CUT[WIE HERRLICH ISTS IM WALD]
REG[Europa, Mitteleuropa, Deutschland]
KEY[F0974  16  A 6/8]
MEL[1_  1__-5_-5__1_  3___0_
    3_  2__2_2__5_  3___0_
    1_  1__-5_-5__1_  3___0_
    3_  2__2_2__5_  3___0_
    3_  3_.33_3_4_5_  6__.5_0_
    5_  3_.33_3_4_5_  6__.5_0_
    3_  2_.22_2__5_  3___0_
    3_  2__2_2__5_  1___0_ //] >>
FCT[Natur - Lied, Wald]
